X: 30456
T: Old Wheel Of Fortune, The
R: strathspey
M: 4/4
K: Amajor
|:(3dcB|A<Fd>F E>A,C>E|(3FED d>D c>DB>D|
A<Fd>F E>A,C>E|1 F>A (3GFE D>c:|2 F>A (3Bcd A>^GA>f||
a>fe>c a>fe>c|(3ded (3cdc B>c||

